packages/icons/src/SVG/call-solid.svg

<svg width="12" height="12" viewBox="0 0 12 12" >
<path d="M8.59038 12C8.28574 12 7.91861 11.8906 7.48899 11.6719C7.06718 11.4453 6.61022 11.1523 6.11811 10.793C5.626 10.4258 5.11826 10.0117 4.59491 9.55078C4.07936 9.08984 3.57163 8.62109 3.07171 8.14453C2.5796 7.67578 2.14607 7.17188 1.77113 6.63281C1.39619 6.10156 1.07983 5.57812 0.822059 5.0625C0.572098 4.54688 0.376816 4.05859 0.236213 3.59766C0.103421 3.14453 0.0253085 2.76172 0.00187471 2.44922C-0.0137479 2.16797 0.0682706 1.89063 0.24793 1.61719C0.419778 1.33594 0.6424 1.08594 0.915794 0.867188C1.197 0.640625 1.50164 0.449219 1.82971 0.292969C2.15779 0.136719 2.47024 0.0390625 2.76707 0L4.41915 3.35156L3.58725 4.3125C3.67318 4.45312 3.90751 4.75781 4.29027 5.22656C4.67302 5.69531 5.05577 6.125 5.43853 6.51562C5.82128 6.89844 6.21965 7.26562 6.63365 7.61719C7.05546 7.96094 7.33667 8.17188 7.47727 8.25L8.66068 7.37109C8.66068 7.37109 8.78566 7.42578 9.03562 7.53516C9.28558 7.64453 9.5785 7.77344 9.91439 7.92188C10.2503 8.0625 10.5862 8.21094 10.922 8.36719C11.2579 8.52344 11.5118 8.64453 11.6836 8.73047C11.6836 8.73047 11.7149 8.75781 11.7774 8.8125C11.8399 8.86719 11.8945 8.96484 11.9414 9.10547C11.9805 9.24609 12 9.34766 12 9.41016C12 9.46484 12 9.49219 12 9.49219C11.8594 10.0938 11.5665 10.5625 11.1212 10.8984C10.6838 11.2344 10.2034 11.5195 9.68005 11.7539C9.68005 11.7539 9.62928 11.7734 9.52773 11.8125C9.42618 11.8516 9.29339 11.8906 9.12935 11.9297C8.95751 11.9766 8.82472 12 8.73098 12C8.63724 12 8.59038 12 8.59038 12Z" />
</svg>

<!-- Generated by IcoMoon.io -->
<svg version="1.1" xmlns="http://www.w3.org/2000/svg" width="12" height="12" viewBox="0 0 12 12">
<title>call-solid</title>
<path d="M8.59 11.998c-0.305 0-0.672-0.109-1.101-0.328-0.422-0.227-0.879-0.52-1.371-0.879-0.492-0.367-1-0.781-1.523-1.242-0.516-0.461-1.023-0.93-1.523-1.406-0.492-0.469-0.926-0.973-1.301-1.511-0.375-0.531-0.691-1.055-0.949-1.57-0.25-0.516-0.445-1.004-0.586-1.465-0.133-0.453-0.211-0.836-0.234-1.148-0.016-0.281 0.066-0.559 0.246-0.832 0.172-0.281 0.394-0.531 0.668-0.75 0.281-0.227 0.586-0.418 0.914-0.574s0.641-0.254 0.937-0.293l1.652 3.351-0.832 0.961c0.086 0.141 0.32 0.445 0.703 0.914s0.766 0.898 1.148 1.289c0.383 0.383 0.781 0.75 1.195 1.101 0.422 0.344 0.703 0.555 0.844 0.633l1.183-0.879c0 0 0.125 0.055 0.375 0.164s0.543 0.238 0.879 0.387c0.336 0.141 0.672 0.289 1.008 0.445s0.59 0.277 0.762 0.363c0 0 0.031 0.027 0.094 0.082s0.117 0.152 0.164 0.293c0.039 0.141 0.059 0.242 0.059 0.305 0 0.055 0 0.082 0 0.082-0.141 0.601-0.433 1.070-0.879 1.406-0.437 0.336-0.918 0.621-1.441 0.855 0 0-0.051 0.019-0.152 0.059s-0.234 0.078-0.398 0.117c-0.172 0.047-0.305 0.070-0.398 0.070s-0.141 0-0.141 0z"></path>
</svg>
